icons/1_Primary/Zoom.svg

<svg xmlns="http://www.w3.org/2000/svg" width="1024" height="1024" fill="none">
   <g clip-path="url(#a)">
      <path fill="#9ABEFF" d="M512 1024c282.77 0 512-229.23 512-512S794.77 0 512 0 0 229.23 0 512s229.23 512 512 512Z"/>
      <path fill="#fff" d="M458.74 467.28A62.933 62.933 0 0 0 414 448.79a63.211 63.211 0 0 0-55.679 93.044A63.21 63.21 0 1 0 458.72 467.28h.02Zm-17.86 71.59a37.881 37.881 0 1 1 0-53.57 37.77 37.77 0 0 1 .01 53.56l-.01.01Zm150.6-71.59a63.252 63.252 0 0 0-97.319 9.579 63.255 63.255 0 0 0 0 70.282 63.254 63.254 0 0 0 64.934 26.893 63.252 63.252 0 0 0 32.385-17.314 62.917 62.917 0 0 0 13.815-68.947 62.928 62.928 0 0 0-13.805-20.493h-.01Zm-17.86 71.59a37.881 37.881 0 1 1 0-53.57 37.77 37.77 0 0 1 .01 53.56l-.01.01Zm-336.27 17.38-.32-6.32 75.85-75.85H256l-6.32-.32c-10.27-.63-17.86-8.38-18.65-18.65l-.32-6.32h94.82l6.32.32a19.1 19.1 0 0 1 18.65 18.65l.32 6.32L275 549.93h56.89l6.32.32c10.43.63 17.86 8.22 18.65 18.65l.32 6.32h-94.87l-6.31-.32a19.333 19.333 0 0 1-18.65-18.65Zm429.52-82.18a25.165 25.165 0 0 0-21.81 12.64c-2.21 3.63-2.84 7.9-3.16 12.64l-.32 6.32v44.25l-.32 6.32c-.47 10.43-8.06 18-18.65 18.65l-6.32.32V448.79c6.32 0 17.38 3.16 22.28 8.69a49.894 49.894 0 0 1 28.29-8.69 50.628 50.628 0 0 1 37.93 17.07 50.6 50.6 0 0 1 88.5 33.5v75.85l-6.29-.31a19.333 19.333 0 0 1-18.65-18.65l-.32-6.32v-44.25l-.32-6.32c-.16-4.58-.79-8.85-3-12.64a25.428 25.428 0 0 0-22-12.64 25.004 25.004 0 0 0-21.81 12.48c-2.21 3.79-2.84 8.06-3.16 12.8l-.32 6.32v69.53l-6.32-.32a19.444 19.444 0 0 1-12.972-5.678 19.444 19.444 0 0 1-5.678-12.972l-.32-6.32v-44.24l-.32-6.32c-.32-4.74-.95-8.85-3.16-12.64a24.997 24.997 0 0 0-21.78-12.65Z"/>
   </g>
   <defs>
      <clipPath id="a">
         <path fill="#fff" d="M0 0h1024v1024H0z"/>
      </clipPath>
   </defs>
</svg>

<svg width="1024" height="1024" viewBox="0 0 1024 1024" fill="none" xmlns="http://www.w3.org/2000/svg">
<g clip-path="url(#clip0_2_4048)">
<path d="M512 1024C794.77 1024 1024 794.77 1024 512C1024 229.23 794.77 0 512 0C229.23 0 0 229.23 0 512C0 794.77 229.23 1024 512 1024Z" fill="#9ABEFF"/>
<path d="M458.74 467.28C452.873 461.397 445.898 456.734 438.219 453.56C430.54 450.386 422.309 448.765 414 448.79C399.377 448.801 385.209 453.882 373.912 463.167C362.615 472.452 354.886 485.367 352.044 499.712C349.201 514.056 351.419 528.942 358.321 541.834C365.223 554.726 376.382 564.827 389.896 570.414C403.409 576.001 418.443 576.73 432.434 572.477C446.425 568.223 458.508 559.25 466.625 547.087C474.742 534.923 478.391 520.321 476.95 505.769C475.508 491.217 469.066 477.615 458.72 467.28H458.74ZM440.88 538.87C435.582 544.168 428.833 547.775 421.485 549.237C414.137 550.699 406.52 549.949 399.599 547.082C392.677 544.215 386.761 539.359 382.599 533.13C378.436 526.901 376.215 519.577 376.215 512.085C376.215 504.593 378.436 497.269 382.599 491.04C386.761 484.811 392.677 479.955 399.599 477.088C406.52 474.221 414.137 473.471 421.485 474.933C428.833 476.395 435.582 480.002 440.88 485.3C444.41 488.809 447.211 492.982 449.123 497.577C451.035 502.173 452.019 507.101 452.02 512.078C452.021 517.055 451.038 521.984 449.128 526.58C447.218 531.176 444.418 535.349 440.89 538.86L440.88 538.87ZM591.48 467.28C582.635 458.433 571.365 452.408 559.095 449.966C546.825 447.525 534.107 448.777 522.549 453.563C510.991 458.35 501.112 466.457 494.161 476.859C487.211 487.261 483.501 499.49 483.501 512C483.501 524.51 487.211 536.739 494.161 547.141C501.112 557.543 510.991 565.65 522.549 570.437C534.107 575.223 546.825 576.475 559.095 574.034C571.365 571.592 582.635 565.567 591.48 556.72C597.392 550.87 602.086 543.905 605.289 536.23C608.493 528.554 610.143 520.319 610.144 512.002C610.145 503.685 608.497 495.45 605.295 487.773C602.093 480.097 597.401 473.132 591.49 467.28H591.48ZM573.62 538.87C568.322 544.168 561.573 547.775 554.225 549.237C546.877 550.699 539.26 549.949 532.339 547.082C525.417 544.215 519.501 539.359 515.339 533.13C511.176 526.901 508.955 519.577 508.955 512.085C508.955 504.593 511.176 497.269 515.339 491.04C519.501 484.811 525.417 479.955 532.339 477.088C539.26 474.221 546.877 473.471 554.225 474.933C561.573 476.395 568.322 480.002 573.62 485.3C577.15 488.809 579.951 492.982 581.863 497.577C583.775 502.173 584.759 507.101 584.76 512.078C584.761 517.055 583.778 521.984 581.868 526.58C579.958 531.176 577.158 535.349 573.63 538.86L573.62 538.87ZM237.35 556.25L237.03 549.93L312.88 474.08H256L249.68 473.76C239.41 473.13 231.82 465.38 231.03 455.11L230.71 448.79H325.53L331.85 449.11C336.76 449.224 341.438 451.226 344.911 454.699C348.384 458.172 350.386 462.85 350.5 467.76L350.82 474.08L275 549.93H331.89L338.21 550.25C348.64 550.88 356.07 558.47 356.86 568.9L357.18 575.22H262.31L256 574.9C251.108 574.731 246.462 572.711 243 569.25C239.538 565.788 237.519 561.142 237.35 556.25ZM666.87 474.07C662.444 474.073 658.098 475.244 654.269 477.463C650.439 479.682 647.263 482.872 645.06 486.71C642.85 490.34 642.22 494.61 641.9 499.35L641.58 505.67V549.92L641.26 556.24C640.79 566.67 633.2 574.24 622.61 574.89L616.29 575.21V448.79C622.61 448.79 633.67 451.95 638.57 457.48C646.904 451.789 656.768 448.759 666.86 448.79C674.03 448.787 681.12 450.307 687.659 453.25C694.198 456.193 700.037 460.491 704.79 465.86C711.594 458.168 720.577 452.729 730.547 450.264C740.516 447.8 750.999 448.427 760.603 452.062C770.208 455.698 778.478 462.17 784.317 470.618C790.155 479.066 793.285 489.091 793.29 499.36V575.21L787 574.9C782.108 574.731 777.462 572.711 774 569.25C770.538 565.788 768.519 561.142 768.35 556.25L768.03 549.93V505.68L767.71 499.36C767.55 494.78 766.92 490.51 764.71 486.72C762.471 482.872 759.26 479.678 755.399 477.46C751.538 475.242 747.163 474.076 742.71 474.08C738.297 474.05 733.954 475.189 730.123 477.381C726.292 479.573 723.11 482.74 720.9 486.56C718.69 490.35 718.06 494.62 717.74 499.36L717.42 505.68V575.21L711.1 574.89C706.216 574.695 701.585 572.668 698.128 569.212C694.672 565.755 692.645 561.124 692.45 556.24L692.13 549.92V505.68L691.81 499.36C691.49 494.62 690.86 490.51 688.65 486.72C686.464 482.873 683.296 479.674 679.469 477.452C675.643 475.229 671.295 474.062 666.87 474.07Z" fill="white"/>
</g>
<defs>
<clipPath id="clip0_2_4048">
<rect width="1024" height="1024" fill="white"/>
</clipPath>
</defs>
</svg>
